X:267
T:score67
L:1/8
Q:1/4=96
M:6/4
I:linebreak $
K:Bb
 (=b6 ^c'4 c'2 | a6) (a'4 ^g'2 | ^f'6 ^g'4 g'2 | =e'6) (e'4 e'2 |$ %4
 !>!=e'4 d'2) (3(d'e'd' ^c'd' ^f'e' | !>!d'4 ^c'2) (3(c'd'c' ^bc' =e'd' | %6
 ^c'2 =b3) (^a (4:3:4b2 ^b2 c'2 ^g2 |$ !>!=b2 a3 ^g ^f2 .^e.f .g.a | =B6 =e4 e2 | %9
 A2) z2 z2 z2 z2 z2 |] %10
